X:1
T:Carmine
T:Tom Brier
T:Carmine
C:Tom Brier
%%score { ( 1 2 5 ) | ( 3 4 ) }
L:1/8
Q:1/2=40
M:4/4
K:Bmin
V:1 treble nm="Piano" snm="Pno."
V:2 treble 
V:5 treble 
V:3 bass 
V:4 bass 
V:1
"^Lento"!p! f3 D !breath!!fermata![B,DE]4 | e3 C !breath!!fermata![B,D]4 | d3 C[Q:1/2=37] E D2 B, | %3
"^rit."[Q:1/2=35] ^E4 !fermata!F4 || f2 |:[Q:1/2=50]"^Più mosso"!mp! e3 d- d2 d2 | c3 B- B2 B2 | %7
 ^A B2 F- F4- | F6 G2 | F [B,C^E]2 [E^Gd]-!<(! d2 c2 | B [EF^A]2 [Acg]- g2 f2!<)! | %11
!mf! e d2 B-!>(! B2 d2 | f e2 B d2 [F^Acf]2!>)! |!mp! e3 d- d2 d2 | c3 B- B2 B2 | ^A B2 F- F4- | %16
 F6 G2 | F E2 F G B2 e | e d2 F G E2 G | F G2 F E2 D2 |1[I:staff +1] [D,F,B,]6[I:staff -1] f2 :|2 %21
[I:staff +1] [D,F,B,]4[I:staff -1] z D Fc |:!mf![Q:1/2=52] B A2 e- [Gce]Acf | %23
 e d2 a- [Adfa]fa[dd'] | [cc'] [Bb]2 [cc'] [Bb] [Aa]2 [Ee] | [Gg] [Ff]2 [Adfa]- [Adfa]FAe | %26
 d c2 e- [FAe]^Acf | e d2 b- [Bdfb]df[Bb] |!<(! [dd'] [cc']2 [dd'] [cc'] [Bb]2 [cc']!<)! | %29
!f! [Bb] [^Ac^a]2 [GAg]- [GAg][Ff][Aa][dd'] | [cc'] [Bdfb]2 [dfbd']- [dfbd'][Ff][Bb][dd'] | %31
 [cc'] [Bdgb]2 [dgbd']- [dgbd'][Gg][Bb][dd'] | [dd'] [cc']2 [dd'] [ee'] [dd']2 [ee'] | %33
 [faf'] [Aa]2 [B^dfb]- [Bdfb] [g^d'g']2 [ff'] | [egbe'] [dd']2 [cef^ac']- [cefac'] [ff']2 [ee'] | %35
!>(! [dfbd'] [Bb]2 [EG_B]-!>)!!mp! [EGB] d2 e | f b2 a- a f2 e |1 [FAd]4 z D Fc :|2 %38
 [FAd]4 [CE^Ac]2 f2 ||!mp! e3 d- d2 d2 | c3 B- B2 B2 | ^A B2 F- F4- | F6 G2 | %43
 F [B,C^E]2 [E^Gd]-!<(! d2 c2 | B [EF^A]2 [Acg]- g2 f2!<)! |!mf! e d2 B-!>(! B2 d2 | %46
 f e2 B d2 [F^Acf]2!>)! |!mp! e3 d- d2 d2 | c3 B- B2 B2 | ^A B2 F- F4- | F6 G2 | F E2 F G B2 e | %52
 e d2 F G E2 G | F G2 F E2 D2 |[I:staff +1] [D,F,B,]4[I:staff -1] z A ^g^d |: %55
[K:E][Q:1/2=55] f3 e- eGfc | e3 =d- dE=c=B- | [GB]GcB- Bdgf- | feBc- cBa^e | g3 f- fAfc | %60
 e3 d- d^^Fed | B2 dc- c2 ^^f^a- | a g2 d e d2 c- |"_cresc." c3 e- e3 g- | g f2 c e f2 d- | %65
 d3 ^^f- f3 ^a- |"_dim." a g2 d gfde- | eGfd e2 de- | e^Afd e2 de- | edcB g d2 e- |1 %70
 [GBe]4 z Agd :|2 [GBe]4 z Bgd |:!mf! g3 f- fAef | e d2 f- fdfa | c'3 b- bg^fe | c2 e=c- c=de=B- | %76
 Bc'bf g a2 d | e f2 g- gfcd |!mp! f e2 f e2 =cB- | [GB]2 [Ec]2 [Ae]2 [Bg]2 |!mf! g3 f- fAef | %81
 e d2 f- fdfa | c'3 b- bgag | g f2 a- a^efg | a3 b- b=c a2 | gfed- de c2 | ecAB- Bg f2 |1 %87
 [GBe]2 GA B g2 d :|2 [GBe]4!mp! !fermata![egbe']4 |] %89
V:2
 z [FBd]2 z x4 | z [E^Ac]2 z x4 | z [DFB]2 z [G,B,]4 | B, C2 B, ^A,4 || F2 |: ^G ^A2 B- B2 F2 | %6
 D E2 =F- F2 D2 | z [DF]2 D- D4- | D6 x2 | x4 [EG]4 | x4 [Ac]4 | [FB]3 [DF]- [DF]2 [FB]2 | %12
 [GB]4 F2 x2 | ^G ^A2 B- B2 F2 | D E2 =F- F2 D2 | z [DF]2 D- D4- | D6 x2 | z [G,B,]3 [B,CE]4 | %18
 z [FB]2 z z [G,_B,]3 | [^A,C]4 [G,B,]2 [F,A,]2 |1 x6 F2 :|2 x8 |: z [CEG]2 [Gc]- x4 | %23
 z [FA]2 [Adf]- x4 | g4 g4 | x8 | z [EG]2 [F^A]- x4 | z [FB]2 [Bdf]- x4 | =f4 f4 | x8 | x8 | x8 | %32
 g4 g4 | x8 | x8 | x8 | x5 [Gc]3 |1 x8 :|2 x6 F2 || ^G ^A2 B- B2 F2 | D E2 =F- F2 D2 | %41
 z [DF]2 D- D4- | D6 x2 | x4 [EG]4 | x4 [Ac]4 | [FB]3 [DF]- [DF]2 [FB]2 | [GB]4 F2 x2 | %47
 ^G ^A2 B- B2 F2 | D E2 =F- F2 D2 | z [DF]2 D- D4- | D6 x2 | z [G,B,]3 [B,CE]4 | %52
 z [FB]2 z z [G,_B,]3 | [^A,C]4 [G,B,]2 [F,A,]2 | x4[I:staff +1] [^D,F,A,B,]4 |: %55
[K:E][I:staff -1] GA^AB- B x3 | =G^G A_B- x4 | x2 E[DFA]- [DFA]3 [GB]- | [GB]3 ^E- E4 | %59
 AB^Bc- c x3 | ^^FGA^A- A x3 | GD^E^^F- FG^Ac- | c B3 [F^B]3 [EG]- | [EG]F^^FG- GA^AB- | %64
 B ^A3 G A2 ^^F- | FGA^A- AB^Bc- | c B3 [G^B]3 [Gc]- | [Gc]4 cBGF- | F4 cB^A[=AB]- | %69
 [AB]4 x [^F=AB]2 [GB]- |1 x8 :|2 x8 |: AB^Bc- x4 | A3 [Ad]- [Ad]4 | ef^^fg- g x3 | %75
 [EG]3 [E=G_B]- [EGB]3 [FA]- | [FA]2 d2 B c3 | G A2 [Ad]- [Ad]4 | A G2 A =c2 AG- | x8 | AB^Bc- x4 | %81
 A3 [Ad]- [Ad]4 | ^ef^^fg- g2 [Be]2 | B A2 c- c4 | =c=d^de- x4 | B3 =G- G4 | [Ac]3 F- F2 A2 |1 %87
 x8 :|2 x8 |] %89
V:3
!ped! F,4!ped-up!!ped! G,4!ped-up! |!ped! [^A,,F,]4!ped-up!!ped! [^G,,=F,]4!ped-up! | %2
!ped! [F,,D,]4!ped-up!!ped! [G,,E,]4!ped-up! | %3
!ped! [G,,D,G,]4!ped-up!!ped! !arpeggio!!fermata![F,,E,F,]4!ped-up! || x2 |: %5
!ped! B,,2 [F,B,D]2!ped-up!!ped! F,,2 [F,B,D]2!ped-up! | %6
!ped! G,,2 [D,G,B,]2!ped-up!!ped! D,,2 [D,G,B,]2!ped-up! |!ped! B,,,2 [D,F,B,]4 ^A,2!ped-up! | %8
!ped! C B,2 F,- F,2 D,2!ped-up! |!ped! C,2 ^G,2!ped-up!!ped! [C,,C,]2 [^E,,^E,]2!ped-up! | %10
!ped! [F,,F,]2 [F,^A,C]2!ped-up!!ped! [^A,,A,]2 [C,C]2!ped-up! | %11
!ped! [B,,B,]2 [D,F,B,]2!ped-up!!ped! [F,,F,]2 [D,,D,]2!ped-up! | %12
!ped! !arpeggio![E,,B,,G,]4!ped-up!!ped! !arpeggio![F,,C,^A,]4!ped-up! | %13
!ped! B,,2 [F,B,D]2!ped-up!!ped! F,,2 [F,B,D]2!ped-up! | %14
!ped! G,,2 [D,G,B,]2!ped-up!!ped! D,,2 [D,G,B,]2!ped-up! |!ped! B,,,2 [D,F,B,]4 ^A,2!ped-up! | %16
!ped! C B,2 F,- F,2 D,2!ped-up! |!ped! [E,,E,]4!ped-up!!ped! [C,,C,]4!ped-up! | %18
!ped! [B,,,B,,]4!ped-up!!ped! [E,,=C,E,]4!ped-up! | %19
!ped! [F,,E,]4!ped-up!!ped! [E,,E,]2 [F,,E,]2!ped-up! |1 %20
!ped! [B,,,B,,]4!ped-up!!ped! F,,4!ped-up! :|2!ped! [B,,,B,,]4!ped-up!!ped! B,,4!ped-up! |: %22
!ped! [E,,E,]2 [E,G,A,]2!ped-up!!ped! [A,,A,]2 [E,G,A,]2!ped-up! | %23
!ped! [D,,D,]2 [F,A,D]2!ped-up!!ped! [F,,F,]2 [F,A,D]2!ped-up! | %24
!ped! [G,,G,]2 [G,B,D]2!ped-up!!ped! [A,,A,]2 [G,A,CE]2!ped-up! | %25
!ped! [D,,D,]2 [F,A,D]2!ped-up!!ped! F,,2 [F,A,D]2!ped-up! | %26
!ped! E,,2 [E,G,B,]2!ped-up!!ped! F,,2 [F,^A,E]2!ped-up! | %27
!ped! [B,,B,]2 [F,B,D]2!ped-up!!ped! [D,,D,]2 [F,B,D]2!ped-up! | %28
!ped! [C,,C,]2 [^E,^G,B,C]2!ped-up!!ped! [G,,=G,]2 [G,B,C=F]2!ped-up! | %29
!ped! [F,,F,]2 [C,,C,]2!ped-up!!ped! [F,,,F,,]4!ped-up! | %30
!ped! [B,,B,]2 [F,B,D]2!ped-up!!ped! [F,,F,]2 [F,B,D]2!ped-up! | %31
!ped! [G,,G,]2 [G,B,D]2!ped-up!!ped! [B,,B,]2 [G,B,D]2!ped-up! | %32
!ped! [A,,A,]2 [G,A,CE]2!ped-up!!ped! [C,,C,]2 [G,A,CE]2!ped-up! | %33
!ped! [D,,D,]2 [=C,,=C,]2!ped-up!!ped! [B,,,B,,]2 [^D,,^D,]2!ped-up! | %34
!ped! [E,,E,]2 [G,B,E]2!ped-up!!ped! [F,,F,]2 [F,^A,E]2!ped-up! | %35
!ped! [B,,B,]2 [F,B,D]2!ped-up!!ped! [G,_B,D]4!ped-up! | %36
!ped! [A,DF]2 [_A,D=F]2!ped-up!!ped! [G,CE]2 [A,,G,]2!ped-up! |1 %37
!ped! D,2 A,,2!ped-up!!ped! D,,4!ped-up! :|2!ped! D, E,2 D,!ped-up!!ped! C,2 F,,2!ped-up! || %39
!ped! B,,2 [F,B,D]2!ped-up!!ped! F,,2 [F,B,D]2!ped-up! | %40
!ped! G,,2 [D,G,B,]2!ped-up!!ped! D,,2 [D,G,B,]2!ped-up! |!ped! B,,,2 [D,F,B,]4 ^A,2!ped-up! | %42
!ped! C B,2 F,- F,2 D,2!ped-up! |!ped! C,2 ^G,2!ped-up!!ped! [C,,C,]2 [^E,,^E,]2!ped-up! | %44
!ped! [F,,F,]2 [F,^A,C]2!ped-up!!ped! [^A,,A,]2 [C,C]2!ped-up! | %45
!ped! [B,,B,]2 [D,F,B,]2!ped-up!!ped! [F,,F,]2 [D,,D,]2!ped-up! | %46
!ped! !arpeggio![E,,B,,G,]4!ped-up!!ped! !arpeggio![F,,C,^A,]4!ped-up! | %47
!ped! B,,2 [F,B,D]2!ped-up!!ped! F,,2 [F,B,D]2!ped-up! | %48
!ped! G,,2 [D,G,B,]2!ped-up!!ped! D,,2 [D,G,B,]2!ped-up! |!ped! B,,,2 [D,F,B,]4 ^A,2!ped-up! | %50
!ped! C B,2 F,- F,2 D,2!ped-up! |!ped! [E,,E,]4!ped-up!!ped! [C,,C,]4!ped-up! | %52
!ped! [B,,,B,,]4!ped-up!!ped! [E,,=C,E,]4!ped-up! | %53
!ped! [F,,E,]4!ped-up!!ped! [E,,E,]2 [F,,E,]2!ped-up! | %54
!ped! B,,, G,,2 F,,!ped-up!!ped! B,,2 B,,,2!ped-up! |: %55
[K:E]!mf!!ped! [E,,B,,E,]2 [G,B,E]2!ped-up!!ped! B,,,2 [G,B,E]2!ped-up! | %56
!ped! [E,,=C,]2 [=G,_B,=CE]2!ped-up!!ped! [=C,,C,]2 [G,B,CE]2!ped-up! | %57
!ped! [E,,B,,E,]2 [G,B,E]2!ped-up!!ped! [F,,D,]2 [B,,,B,,]2!ped-up! | %58
!ped! [E,,E,]2 [=D,,=D,]2!ped-up!!ped! [C,,C,]2 [^E,,^E,]2!ped-up! | %59
!ped! [F,,F,]2 [A,CF]2!ped-up!!ped! [E,,E,]2 [A,CF]2!ped-up! | %60
!ped! [D,,D,]2 [D,^^F,C]2!ped-up!!ped! [^^F,,F,]2 [D,F,C]2!ped-up! | %61
!ped! [G,,G,]2 [D,G,B,]2!ped-up!!ped! [D,,D,]2 [D,^^F,C]2!ped-up! | %62
!ped! [G,,G,]2 [D,G,B,]2!ped-up!!ped! [G,,,G,,]2 [G,^B,D]2!ped-up! | %63
!ped! [C,,C,]2 [E,G,C]2!ped-up!!ped! [B,,,B,,]2 [E,G,C]2!ped-up! | %64
!ped! [^A,,,^A,,]2 [F,^A,E]2!ped-up!!ped! [F,,,F,,]2 [F,A,E]2!ped-up! | %65
!ped! [D,,D,]2 [D,^^F,C]2!ped-up!!ped! [C,,C,]2 [D,F,C]2!ped-up! | %66
!ped! [B,,,B,,]2 [D,G,B,]2!ped-up!!ped! [G,,,G,,]2 [G,^B,D]2!ped-up! | %67
!ped! [C,,C,]2 [G,CE]2!ped-up!!ped! [G,,G,]2 [G,CE]2!ped-up! | %68
!ped! [F,,F,]2 [F,^A,E]2!ped-up!!ped! [^A,,A,]2 [F,A,E]2!ped-up! | %69
!ped! [B,,B,]2 [F,A,B,D]2!ped-up!!ped! [B,,,B,,]2 [F,A,B,D]2!ped-up! |1 %70
!mf!!ped! E,, C,2 G,,!ped-up!!ped! B,,2 B,,,2!ped-up! :|2 %71
!ped! E,, C,2 B,,!ped-up!!ped! E,2 [B,,B,]2!ped-up! |: %72
!ped! [A,,E,A,]2 [E,A,C]2!ped-up!!ped! [C,C]2 [E,A,C]2!ped-up! | %73
!ped! [B,,B,]2 [F,A,B,D]2!ped-up!!ped! [A,,A,]2 [F,A,B,D]2!ped-up! | %74
!ped! [G,,G,]2 [G,B,E]2!ped-up!!ped! [E,,E,]2 [G,B,E]2!ped-up! | %75
!ped! [G,,E,]2 [G,B,E]2!ped-up!!ped! [=G,,E,]2 [=G,_B,=CE]2!ped-up! | %76
!ped! [F,,D,]2 [F,A,B,D]2!ped-up!!ped! [A,,E,]2 [E,A,C]2!ped-up! | %77
!ped! [F,,C,F,]2 [F,A,C]2!ped-up!!ped! [B,,,B,,]2 [F,A,B,D]2!ped-up! | %78
!ped! (E,G,B,=C-!ped-up!!ped! C2) (E2-!ped-up! |!ped! EDCB,!ped-up!!ped! A,F,G,E,)!ped-up! | %80
!ped! [A,,E,A,]2 [E,A,C]2!ped-up!!ped! [C,C]2 [E,A,C]2!ped-up! | %81
!ped! [B,,B,]2 [F,A,B,D]2!ped-up!!ped! [A,,A,]2 [F,A,B,D]2!ped-up! | %82
!ped! [G,,G,]2 [G,B,C^E]2!ped-up!!ped! [C,,C,]2 [G,B,CE]2!ped-up! | %83
!ped! [F,,F,]2 [A,CF]2!ped-up!!ped! [C,C]2 [B,,B,]2!ped-up! | %84
!ped! [A,,A,]2 [A,=CE]2!ped-up!!ped! [=C,C]2 [A,,A,]2!ped-up! | %85
!ped! [B,,B,]2 [G,B,E]2!ped-up!!ped! [^A,,^A,]2 [=G,A,CE]2!ped-up! | %86
!ped! [A,,A,]2 [F,,F,]2!ped-up!!ped! [B,,,B,,]2 [F,A,B,D]2!ped-up! |1 %87
!ped! [E,,E,]4!ped-up!!ped! [E,G,B,=D]2 [E,,E,]2!ped-up! :|2 %88
!ped! [E,,E,]2 [B,,,B,,]2!ped-up!!ped! !fermata![E,,,E,,]4!ped-up! |] %89
V:4
 B,,8 | x8 | x8 | x8 || x2 |: x8 | x8 | x8 | x8 | x8 | x8 | x8 | x8 | x8 | x8 | x8 | x8 | x8 | x8 | %19
 x8 |1 x D,,2 G,, x4 :|2 x G,,2 F,, x4 |: x8 | x8 | x8 | x8 | x8 | x8 | x8 | x8 | x8 | x8 | x8 | %33
 x8 | x8 | x8 | x8 |1 x8 :|2 x8 || x8 | x8 | x8 | x8 | x8 | x8 | x8 | x8 | x8 | x8 | x8 | x8 | x8 | %52
 x8 | x8 | x8 |:[K:E] x8 | x8 | x8 | x8 | x8 | x8 | x8 | x8 | x8 | x8 | x8 | x8 | x8 | x8 | x8 |1 %70
 x8 :|2 x8 |: x8 | x8 | x8 | x8 | x8 | x8 | x8 | x8 | x8 | x8 | x8 | x8 | x8 | x8 | x8 |1 x8 :|2 %88
 x8 |] %89
V:5
 x8 | x8 | x8 | x8 || x2 |: x8 | x8 | x8 | x8 | x8 | x8 | x8 | x8 | x8 | x8 | x8 | x8 | x8 | x8 | %19
 x8 |1 x8 :|2 x8 |: x8 | x8 | x8 | x8 | x8 | x8 | x8 | x8 | x8 | x8 | x8 | x8 | x8 | x8 | x8 |1 %37
 x8 :|2 x8 || x8 | x8 | x8 | x8 | x8 | x8 | x8 | x8 | x8 | x8 | x8 | x8 | x8 | x8 | x8 | x8 |: %55
[K:E] x5 x3 | x4 BE^^FG- | x8 | x8 | x5 x3 | x5 x3 | x8 | x8 | x8 | x8 | x8 | x8 | x8 | x8 | x8 |1 %70
 x8 :|2 x8 |: x4 cA c2 | x8 | x8 | x8 | x8 | x8 | x8 | x8 | x4 cA c2 | x8 | x8 | x8 | x4 e=c e2 | %85
 x8 | x8 |1 x8 :|2 x8 |] %89

